brand/assets/grade.cube
# Conquest · clean — tools/make_grade.py
TITLE "Conquest · clean"
LUT_3D_SIZE 9
DOMAIN_MIN 0.0 0.0 0.0
DOMAIN_MAX 1.0 1.0 1.0
0.000000 0.000000 0.000000
0.111087 0.000726 0.000726
0.240000 0.001568 0.001568
0.368913 0.002410 0.002410
0.497827 0.003252 0.003252
0.626740 0.004094 0.004094
0.755654 0.004936 0.004936
0.884560 0.005778 0.005778
0.962235 0.006286 0.006286
0.002412 0.111464 0.002412
0.113499 0.112190 0.003138
0.242412 0.113032 0.003980
0.371326 0.113874 0.004822
0.500239 0.114716 0.005664
0.629152 0.115558 0.006506
0.758066 0.116401 0.007348
0.886972 0.117243 0.008190
0.964647 0.117750 0.008698
0.005217 0.241073 0.005217
0.116304 0.241798 0.005943
0.245217 0.242640 0.006785
0.374130 0.243482 0.007627
0.503044 0.244324 0.008469
0.631957 0.245167 0.009311
0.760871 0.246009 0.010153
0.889777 0.246851 0.010995
0.967452 0.247358 0.011503
0.008022 0.370681 0.008022
0.119109 0.371406 0.008748
0.248022 0.372248 0.009590
0.376935 0.373090 0.010432
0.505849 0.373933 0.011274
0.634762 0.374775 0.012116
0.763675 0.375617 0.012958
0.892582 0.376459 0.013800
0.970257 0.376966 0.014307
0.010827 0.500289 0.010827
0.121913 0.501014 0.011552
0.250827 0.501856 0.012394
0.379740 0.502699 0.013237
0.508654 0.503541 0.014079
0.637567 0.504383 0.014921
0.766480 0.505225 0.015763
0.895387 0.506067 0.016605
0.973062 0.506574 0.017112
0.013632 0.629897 0.013632
0.124718 0.630622 0.014357
0.253632 0.631465 0.015199
0.382545 0.632307 0.016041
0.511458 0.633149 0.016883
0.640372 0.633991 0.017726
0.769285 0.634833 0.018568
0.898192 0.635675 0.019410
0.975866 0.636182 0.019917
0.016436 0.759505 0.016436
0.127523 0.760231 0.017162
0.256436 0.761073 0.018004
0.385350 0.761915 0.018846
0.514263 0.762757 0.019688
0.643177 0.763599 0.020530
0.772090 0.764441 0.021373
0.900996 0.765283 0.022215
0.978671 0.765790 0.022722
0.019241 0.889113 0.019241
0.130328 0.889839 0.019967
0.259241 0.890681 0.020809
0.388155 0.891523 0.021651
0.517068 0.892365 0.022493
0.645981 0.893207 0.023335
0.774895 0.894049 0.024177
0.903801 0.894891 0.025019
0.981476 0.895399 0.025527
0.021145 0.977094 0.021145
0.132232 0.977820 0.021871
0.261145 0.978662 0.022713
0.390059 0.979504 0.023555
0.518972 0.980346 0.024397
0.647885 0.981189 0.025239
0.776799 0.982031 0.026081
0.905705 0.982873 0.026923
0.983380 0.983380 0.027431
0.000245 0.000245 0.110000
0.111332 0.000971 0.110725
0.240245 0.001813 0.111567
0.369159 0.002655 0.112409
0.498072 0.003497 0.113252
0.626985 0.004339 0.114094
0.755899 0.005181 0.114936
0.884805 0.006023 0.115778
0.962480 0.006531 0.116285
0.002657 0.111710 0.112412
0.113744 0.112435 0.113137
0.242657 0.113277 0.113979
0.371571 0.114119 0.114822
0.500484 0.114961 0.115664
0.629397 0.115804 0.116506
0.758311 0.116646 0.117348
0.887217 0.117488 0.118190
0.964892 0.117995 0.118697
0.005462 0.241318 0.115217
0.116549 0.242043 0.115942
0.245462 0.242885 0.116784
0.374376 0.243727 0.117626
0.503289 0.244570 0.118469
0.632202 0.245412 0.119311
0.761116 0.246254 0.120153
0.890022 0.247096 0.120995
0.967697 0.247603 0.121502
0.008267 0.370926 0.118021
0.119354 0.371651 0.118747
0.248267 0.372493 0.119589
0.377180 0.373336 0.120431
0.506094 0.374178 0.121273
0.635007 0.375020 0.122115
0.763921 0.375862 0.122958
0.892827 0.376704 0.123800
0.970502 0.377211 0.124307
0.011072 0.500534 0.120826
0.122158 0.501259 0.121552
0.251072 0.502102 0.122394
0.379985 0.502944 0.123236
0.508899 0.503786 0.124078
0.637812 0.504628 0.124920
0.766725 0.505470 0.125762
0.895632 0.506312 0.126604
0.973307 0.506819 0.127112
0.013877 0.630142 0.123631
0.124963 0.630868 0.124357
0.253877 0.631710 0.125199
0.382790 0.632552 0.126041
0.511703 0.633394 0.126883
0.640617 0.634236 0.127725
0.769530 0.635078 0.128567
0.898437 0.635920 0.129409
0.976111 0.636427 0.129917
0.016681 0.759750 0.126436
0.127768 0.760476 0.127162
0.256682 0.761318 0.128004
0.385595 0.762160 0.128846
0.514508 0.763002 0.129688
0.643422 0.763844 0.130530
0.772335 0.764686 0.131372
0.901242 0.765528 0.132214
0.978916 0.766036 0.132722
0.019486 0.889358 0.129241
0.130573 0.890084 0.129966
0.259486 0.890926 0.130809
0.388400 0.891768 0.131651
0.517313 0.892610 0.132493
0.646226 0.893452 0.133335
0.775140 0.894294 0.134177
0.904046 0.895136 0.135019
0.981721 0.895644 0.135526
0.021390 0.977340 0.131145
0.132477 0.978065 0.131870
0.261390 0.978907 0.132713
0.390304 0.979749 0.133555
0.519217 0.980592 0.134397
0.648130 0.981434 0.135239
0.777044 0.982276 0.136081
0.905950 0.983118 0.136923
0.983625 0.983625 0.137430
0.000526 0.000526 0.236032
0.111613 0.001252 0.236758
0.240526 0.002094 0.237600
0.369439 0.002936 0.238442
0.498353 0.003778 0.239284
0.627266 0.004620 0.240126
0.756179 0.005462 0.240968
0.885086 0.006304 0.241810
0.962761 0.006811 0.242318
0.002938 0.111990 0.238444
0.114025 0.112716 0.239170
0.242938 0.113558 0.240012
0.371852 0.114400 0.240854
0.500765 0.115242 0.241696
0.629678 0.116084 0.242538
0.758592 0.116926 0.243380
0.887498 0.117769 0.244223
0.965173 0.118276 0.244730
0.005743 0.241598 0.241249
0.116830 0.242324 0.241975
0.245743 0.243166 0.242817
0.374656 0.244008 0.243659
0.503570 0.244850 0.244501
0.632483 0.245692 0.245343
0.761397 0.246535 0.246185
0.890303 0.247377 0.247027
0.967978 0.247884 0.247535
0.008548 0.371206 0.244054
0.119634 0.371932 0.244780
0.248548 0.372774 0.245622
0.377461 0.373616 0.246464
0.506375 0.374458 0.247306
0.635288 0.375301 0.248148
0.764201 0.376143 0.248990
0.893108 0.376985 0.249832
0.970783 0.377492 0.250340
0.011353 0.500815 0.246859
0.122439 0.501540 0.247584
0.251353 0.502382 0.248427
0.380266 0.503224 0.249269
0.509179 0.504067 0.250111
0.638093 0.504909 0.250953
0.767006 0.505751 0.251795
0.895913 0.506593 0.252637
0.973587 0.507100 0.253144
0.014157 0.630423 0.249664
0.125244 0.631148 0.250389
0.254157 0.631990 0.251231
0.383071 0.632833 0.252073
0.511984 0.633675 0.252916
0.640898 0.634517 0.253758
0.769811 0.635359 0.254600
0.898717 0.636201 0.255442
0.976392 0.636708 0.255949
0.016962 0.760031 0.252468
0.128049 0.760756 0.253194
0.256962 0.761599 0.254036
0.385876 0.762441 0.254878
0.514789 0.763283 0.255720
0.643702 0.764125 0.256563
0.772616 0.764967 0.257405
0.901522 0.765809 0.258247
0.979197 0.766316 0.258754
0.019767 0.889639 0.255273
0.130854 0.890364 0.255999
0.259767 0.891207 0.256841
0.388681 0.892049 0.257683
0.517594 0.892891 0.258525
0.646507 0.893733 0.259367
0.775421 0.894575 0.260209
0.904327 0.895417 0.261052
0.982002 0.895924 0.261559
0.021671 0.977620 0.257177
0.132758 0.978346 0.257903
0.261671 0.979188 0.258745
0.390585 0.980030 0.259587
0.519498 0.980872 0.260429
0.648411 0.981714 0.261271
0.777325 0.982557 0.262113
0.906231 0.983399 0.262956
0.983906 0.983906 0.263463
0.000805 0.000805 0.361425
0.111892 0.001531 0.362150
0.240805 0.002373 0.362992
0.369719 0.003215 0.363834
0.498632 0.004057 0.364676
0.627545 0.004899 0.365519
0.756459 0.005741 0.366361
0.885365 0.006583 0.367203
0.963040 0.007091 0.367710
0.003217 0.112270 0.363837
0.114304 0.112995 0.364562
0.243218 0.113837 0.365404
0.372131 0.114680 0.366247
0.501044 0.115522 0.367089
0.629958 0.116364 0.367931
0.758871 0.117206 0.368773
0.887778 0.118048 0.369615
0.965452 0.118555 0.370122
0.006022 0.241878 0.366642
0.117109 0.242603 0.367367
0.246022 0.243446 0.368209
0.374936 0.244288 0.369051
0.503849 0.245130 0.369894
0.632762 0.245972 0.370736
0.761676 0.246814 0.371578
0.890582 0.247656 0.372420
0.968257 0.248163 0.372927
0.008827 0.371486 0.369446
0.119914 0.372212 0.370172
0.248827 0.373054 0.371014
0.377741 0.373896 0.371856
0.506654 0.374738 0.372698
0.635567 0.375580 0.373540
0.764481 0.376422 0.374383
0.893387 0.377264 0.375225
0.971062 0.377771 0.375732
0.011632 0.501094 0.372251
0.122719 0.501820 0.372977
0.251632 0.502662 0.373819
0.380545 0.503504 0.374661
0.509459 0.504346 0.375503
0.638372 0.505188 0.376345
0.767286 0.506030 0.377187
0.896192 0.506872 0.378029
0.973867 0.507380 0.378537
0.014437 0.630702 0.375056
0.125523 0.631428 0.375782
0.254437 0.632270 0.376624
0.383350 0.633112 0.377466
0.512264 0.633954 0.378308
0.641177 0.634796 0.379150
0.770090 0.635638 0.379992
0.898997 0.636480 0.380834
0.976672 0.636988 0.381342
0.017242 0.760310 0.377861
0.128328 0.761036 0.378587
0.257242 0.761878 0.379429
0.386155 0.762720 0.380271
0.515068 0.763562 0.381113
0.643982 0.764404 0.381955
0.772895 0.765246 0.382797
0.901802 0.766088 0.383639
0.979477 0.766596 0.384147
0.020046 0.889918 0.380666
0.131133 0.890644 0.381391
0.260047 0.891486 0.382233
0.388960 0.892328 0.383076
0.517873 0.893170 0.383918
0.646787 0.894012 0.384760
0.775700 0.894854 0.385602
0.904607 0.895696 0.386444
0.982281 0.896204 0.386951
0.021950 0.977900 0.382570
0.133037 0.978625 0.383295
0.261951 0.979467 0.384137
0.390864 0.980310 0.384980
0.519777 0.981152 0.385822
0.648691 0.981994 0.386664
0.777604 0.982836 0.387506
0.906511 0.983678 0.388348
0.984185 0.984185 0.388855
0.001084 0.001084 0.486400
0.112170 0.001809 0.487126
0.241084 0.002651 0.487968
0.369997 0.003494 0.488810
0.498911 0.004336 0.489652
0.627824 0.005178 0.490494
0.756737 0.006020 0.491337
0.885644 0.006862 0.492179
0.963319 0.007369 0.492686
0.003496 0.112548 0.488813
0.114583 0.113274 0.489538
0.243496 0.114116 0.490380
0.372409 0.114958 0.491222
0.501323 0.115800 0.492065
0.630236 0.116642 0.492907
0.759149 0.117484 0.493749
0.888056 0.118326 0.494591
0.965731 0.118834 0.495098
0.006301 0.242156 0.491617
0.117387 0.242882 0.492343
0.246301 0.243724 0.493185
0.375214 0.244566 0.494027
0.504128 0.245408 0.494869
0.633041 0.246250 0.495711
0.761954 0.247092 0.496554
0.890861 0.247934 0.497396
0.968536 0.248442 0.497903
0.009106 0.371764 0.494422
0.120192 0.372490 0.495148
0.249106 0.373332 0.495990
0.378019 0.374174 0.496832
0.506932 0.375016 0.497674
0.635846 0.375858 0.498516
0.764759 0.376700 0.499358
0.893666 0.377543 0.500200
0.971340 0.378050 0.500708
0.011910 0.501372 0.497227
0.122997 0.502098 0.497953
0.251910 0.502940 0.498795
0.380824 0.503782 0.499637
0.509737 0.504624 0.500479
0.638651 0.505466 0.501321
0.767564 0.506309 0.502163
0.896470 0.507151 0.503005
0.974145 0.507658 0.503513
0.014715 0.630980 0.500032
0.125802 0.631706 0.500758
0.254715 0.632548 0.501600
0.383629 0.633390 0.502442
0.512542 0.634232 0.503284
0.641455 0.635075 0.504126
0.770369 0.635917 0.504968
0.899275 0.636759 0.505810
0.976950 0.637266 0.506318
0.017520 0.760589 0.502837
0.128607 0.761314 0.503562
0.257520 0.762156 0.504405
0.386434 0.762998 0.505247
0.515347 0.763841 0.506089
0.644260 0.764683 0.506931
0.773174 0.765525 0.507773
0.902080 0.766367 0.508615
0.979755 0.766874 0.509122
0.020325 0.890197 0.505642
0.131412 0.890922 0.506367
0.260325 0.891764 0.507209
0.389238 0.892607 0.508051
0.518152 0.893449 0.508894
0.647065 0.894291 0.509736
0.775979 0.895133 0.510578
0.904885 0.895975 0.511420
0.982560 0.896482 0.511927
0.022229 0.978178 0.507546
0.133316 0.978904 0.508271
0.262229 0.979746 0.509113
0.391142 0.980588 0.509955
0.520056 0.981430 0.510798
0.648969 0.982272 0.511640
0.777883 0.983114 0.512482
0.906789 0.983956 0.513324
0.984464 0.984464 0.513831
0.001361 0.001361 0.611066
0.112448 0.002087 0.611792
0.241362 0.002929 0.612634
0.370275 0.003771 0.613476
0.499188 0.004613 0.614318
0.628102 0.005456 0.615161
0.757015 0.006298 0.616003
0.885922 0.007140 0.616845
0.963596 0.007647 0.617352
0.003774 0.112826 0.613479
0.114860 0.113552 0.614204
0.243774 0.114394 0.615046
0.372687 0.115236 0.615889
0.501600 0.116078 0.616731
0.630514 0.116920 0.617573
0.759427 0.117762 0.618415
0.888334 0.118604 0.619257
0.966009 0.119112 0.619764
0.006578 0.242434 0.616284
0.117665 0.243160 0.617009
0.246579 0.244002 0.617851
0.375492 0.244844 0.618693
0.504405 0.245686 0.619535
0.633319 0.246528 0.620378
0.762232 0.247370 0.621220
0.891139 0.248212 0.622062
0.968813 0.248720 0.622569
0.009383 0.372042 0.619088
0.120470 0.372768 0.619814
0.249383 0.373610 0.620656
0.378297 0.374452 0.621498
0.507210 0.375294 0.622340
0.636124 0.376136 0.623182
0.765037 0.376978 0.624025
0.893943 0.377820 0.624867
0.971618 0.378328 0.625374
0.012188 0.501650 0.621893
0.123275 0.502376 0.622619
0.252188 0.503218 0.623461
0.381102 0.504060 0.624303
0.510015 0.504902 0.625145
0.638928 0.505744 0.625987
0.767842 0.506586 0.626829
0.896748 0.507428 0.627671
0.974423 0.507936 0.628179
0.014993 0.631258 0.624698
0.126080 0.631984 0.625424
0.254993 0.632826 0.626266
0.383906 0.633668 0.627108
0.512820 0.634510 0.627950
0.641733 0.635352 0.628792
0.770647 0.636194 0.629634
0.899553 0.637036 0.630476
0.977228 0.637544 0.630984
0.017798 0.760866 0.627503
0.128885 0.761592 0.628229
0.257798 0.762434 0.629071
0.386711 0.763276 0.629913
0.515625 0.764118 0.630755
0.644538 0.764960 0.631597
0.773451 0.765802 0.632439
0.902358 0.766645 0.633281
0.980033 0.767152 0.633788
0.020603 0.890474 0.630308
0.131689 0.891200 0.631033
0.260603 0.892042 0.631875
0.389516 0.892884 0.632718
0.518429 0.893726 0.633560
0.647343 0.894568 0.634402
0.776256 0.895411 0.635244
0.905163 0.896253 0.636086
0.982838 0.896760 0.636593
0.022507 0.978456 0.632212
0.133593 0.979182 0.632937
0.262507 0.980024 0.633779
0.391420 0.980866 0.634622
0.520333 0.981708 0.635464
0.649247 0.982550 0.636306
0.778160 0.983392 0.637148
0.907067 0.984234 0.637990
0.984742 0.984742 0.638497
0.001639 0.001639 0.735486
0.112725 0.002364 0.736212
0.241639 0.003206 0.737054
0.370552 0.004049 0.737896
0.499466 0.004891 0.738738
0.628379 0.005733 0.739580
0.757292 0.006575 0.740422
0.886199 0.007417 0.741264
0.963874 0.007924 0.741772
0.004051 0.113103 0.737898
0.115138 0.113829 0.738624
0.244051 0.114671 0.739466
0.372964 0.115513 0.740308
0.501878 0.116355 0.741150
0.630791 0.117197 0.741992
0.759704 0.118039 0.742834
0.888611 0.118881 0.743676
0.966286 0.119389 0.744184
0.006856 0.242711 0.740703
0.117942 0.243437 0.741429
0.246856 0.244279 0.742271
0.375769 0.245121 0.743113
0.504683 0.245963 0.743955
0.633596 0.246805 0.744797
0.762509 0.247647 0.745639
0.891416 0.248489 0.746481
0.969091 0.248997 0.746989
0.009661 0.372319 0.743508
0.120747 0.373045 0.744233
0.249661 0.373887 0.745076
0.378574 0.374729 0.745918
0.507487 0.375571 0.746760
0.636401 0.376413 0.747602
0.765314 0.377255 0.748444
0.894221 0.378098 0.749286
0.971895 0.378605 0.749793
0.012465 0.501927 0.746313
0.123552 0.502653 0.747038
0.252465 0.503495 0.747880
0.381379 0.504337 0.748722
0.510292 0.505179 0.749565
0.639206 0.506021 0.750407
0.768119 0.506864 0.751249
0.897025 0.507706 0.752091
0.974700 0.508213 0.752598
0.015270 0.631535 0.749117
0.126357 0.632261 0.749843
0.255270 0.633103 0.750685
0.384184 0.633945 0.751527
0.513097 0.634787 0.752369
0.642010 0.635630 0.753212
0.770924 0.636472 0.754054
0.899830 0.637314 0.754896
0.977505 0.637821 0.755403
0.018075 0.761144 0.751922
0.129162 0.761869 0.752648
0.258075 0.762711 0.753490
0.386988 0.763553 0.754332
0.515902 0.764395 0.755174
0.644815 0.765238 0.756016
0.773729 0.766080 0.756858
0.902635 0.766922 0.757701
0.980310 0.767429 0.758208
0.020880 0.890752 0.754727
0.131967 0.891477 0.755453
0.260880 0.892319 0.756295
0.389793 0.893161 0.757137
0.518707 0.894004 0.757979
0.647620 0.894846 0.758821
0.776533 0.895688 0.759663
0.905440 0.896530 0.760505
0.983115 0.897037 0.761013
0.022784 0.978733 0.756631
0.133871 0.979459 0.757357
0.262784 0.980301 0.758199
0.391697 0.981143 0.759041
0.520611 0.981985 0.759883
0.649524 0.982827 0.760725
0.778437 0.983669 0.761567
0.907344 0.984511 0.762409
0.985019 0.985019 0.762917
0.001915 0.001915 0.859700
0.113002 0.002641 0.860426
0.241915 0.003483 0.861268
0.370829 0.004325 0.862110
0.499742 0.005167 0.862952
0.628656 0.006009 0.863794
0.757569 0.006852 0.864637
0.886475 0.007694 0.865479
0.964150 0.008201 0.865986
0.004328 0.113380 0.862113
0.115414 0.114106 0.862838
0.244328 0.114948 0.863680
0.373241 0.115790 0.864522
0.502154 0.116632 0.865365
0.631068 0.117474 0.866207
0.759981 0.118316 0.867049
0.888888 0.119158 0.867891
0.966562 0.119665 0.868398
0.007132 0.242988 0.864917
0.118219 0.243714 0.865643
0.247133 0.244556 0.866485
0.376046 0.245398 0.867327
0.504959 0.246240 0.868169
0.633873 0.247082 0.869011
0.762786 0.247924 0.869854
0.891693 0.248766 0.870696
0.969367 0.249274 0.871203
0.009937 0.372596 0.867722
0.121024 0.373322 0.868448
0.249937 0.374164 0.869290
0.378851 0.375006 0.870132
0.507764 0.375848 0.870974
0.636677 0.376690 0.871816
0.765591 0.377532 0.872658
0.894497 0.378374 0.873500
0.972172 0.378882 0.874008
0.012742 0.502204 0.870527
0.123829 0.502930 0.871253
0.252742 0.503772 0.872095
0.381656 0.504614 0.872937
0.510569 0.505456 0.873779
0.639482 0.506298 0.874621
0.768396 0.507140 0.875463
0.897302 0.507982 0.876305
0.974977 0.508490 0.876813
0.015547 0.631812 0.873332
0.126634 0.632538 0.874058
0.255547 0.633380 0.874900
0.384460 0.634222 0.875742
0.513374 0.635064 0.876584
0.642287 0.635906 0.877426
0.771201 0.636748 0.878268
0.900107 0.637590 0.879110
0.977782 0.638098 0.879618
0.018352 0.761420 0.876137
0.129438 0.762146 0.876862
0.258352 0.762988 0.877704
0.387265 0.763830 0.878547
0.516179 0.764672 0.879389
0.645092 0.765514 0.880231
0.774005 0.766356 0.881073
0.902912 0.767199 0.881915
0.980587 0.767706 0.882422
0.021157 0.891028 0.878942
0.132243 0.891754 0.879667
0.261157 0.892596 0.880509
0.390070 0.893438 0.881351
0.518983 0.894280 0.882194
0.647897 0.895122 0.883036
0.776810 0.895965 0.883878
0.905717 0.896807 0.884720
0.983392 0.897314 0.885227
0.023061 0.979010 0.880846
0.134147 0.979736 0.881571
0.263061 0.980578 0.882413
0.391974 0.981420 0.883255
0.520887 0.982262 0.884098
0.649801 0.983104 0.884940
0.778714 0.983946 0.885782
0.907621 0.984788 0.886624
0.985296 0.985296 0.887131
0.002124 0.002124 0.953426
0.113211 0.002850 0.954152
0.242124 0.003692 0.954994
0.371038 0.004534 0.955836
0.499951 0.005376 0.956678
0.628864 0.006218 0.957520
0.757778 0.007060 0.958362
0.886684 0.007902 0.959204
0.964359 0.008410 0.959712
0.004536 0.113589 0.955838
0.115623 0.114314 0.956564
0.244536 0.115156 0.957406
0.373450 0.115999 0.958248
0.502363 0.116841 0.959090
0.631277 0.117683 0.959933
0.760190 0.118525 0.960775
0.889097 0.119367 0.961617
0.966771 0.119874 0.962124
0.007341 0.243197 0.958643
0.118428 0.243922 0.959369
0.247341 0.244765 0.960211
0.376255 0.245607 0.961053
0.505168 0.246449 0.961895
0.634081 0.247291 0.962737
0.762995 0.248133 0.963579
0.891901 0.248975 0.964422
0.969576 0.249482 0.964929
0.010146 0.372805 0.961448
0.121233 0.373531 0.962174
0.250146 0.374373 0.963016
0.379060 0.375215 0.963858
0.507973 0.376057 0.964700
0.636886 0.376899 0.965542
0.765800 0.377741 0.966384
0.894706 0.378583 0.967226
0.972381 0.379090 0.967734
0.012951 0.502413 0.964253
0.124038 0.503139 0.964979
0.252951 0.503981 0.965821
0.381864 0.504823 0.966663
0.510778 0.505665 0.967505
0.639691 0.506507 0.968347
0.768605 0.507349 0.969189
0.897511 0.508191 0.970031
0.975186 0.508699 0.970539
0.015756 0.632021 0.967058
0.126842 0.632747 0.967783
0.255756 0.633589 0.968626
0.384669 0.634431 0.969468
0.513583 0.635273 0.970310
0.642496 0.636115 0.971152
0.771409 0.636957 0.971994
0.900316 0.637799 0.972836
0.977991 0.638307 0.973343
0.018561 0.761629 0.969863
0.129647 0.762355 0.970588
0.258561 0.763197 0.971430
0.387474 0.764039 0.972273
0.516387 0.764881 0.973115
0.645301 0.765723 0.973957
0.774214 0.766565 0.974799
0.903121 0.767407 0.975641
0.980795 0.767915 0.976148
0.021365 0.891237 0.972667
0.132452 0.891963 0.973393
0.261366 0.892805 0.974235
0.390279 0.893647 0.975077
0.519192 0.894489 0.975919
0.648106 0.895331 0.976762
0.777019 0.896173 0.977604
0.905926 0.897015 0.978446
0.983600 0.897523 0.978953
0.023269 0.979219 0.974571
0.134356 0.979944 0.975297
0.263270 0.980786 0.976139
0.392183 0.981629 0.976981
0.521096 0.982471 0.977823
0.650010 0.983313 0.978666
0.778923 0.984155 0.979508
0.907830 0.984997 0.980350
0.985504 0.985504 0.980857
