brand/assets/grade.cube
# Conquest · clean — tools/make_grade.py
TITLE "Conquest · clean"
LUT_3D_SIZE 33
DOMAIN_MIN 0.0 0.0 0.0
DOMAIN_MAX 1.0 1.0 1.0
0.000000 0.000000 0.000000
0.014402 0.000094 0.000094
0.046630 0.000305 0.000305
0.078858 0.000515 0.000515
0.111087 0.000726 0.000726
0.143315 0.000936 0.000936
0.175543 0.001147 0.001147
0.207772 0.001357 0.001357
0.240000 0.001568 0.001568
0.272228 0.001778 0.001778
0.304457 0.001989 0.001989
0.336685 0.002199 0.002199
0.368913 0.002410 0.002410
0.401142 0.002620 0.002620
0.433370 0.002831 0.002831
0.465598 0.003041 0.003041
0.497827 0.003252 0.003252
0.530055 0.003462 0.003462
0.562284 0.003673 0.003673
0.594512 0.003884 0.003884
0.626740 0.004094 0.004094
0.658969 0.004305 0.004305
0.691197 0.004515 0.004515
0.723425 0.004726 0.004726
0.755654 0.004936 0.004936
0.787882 0.005147 0.005147
0.820110 0.005357 0.005357
0.852339 0.005568 0.005568
0.884560 0.005778 0.005778
0.914979 0.005977 0.005977
0.938964 0.006134 0.006134
0.955071 0.006239 0.006239
0.962235 0.006286 0.006286
0.000309 0.014258 0.000309
0.014710 0.014352 0.000403
0.046939 0.014563 0.000613
0.079167 0.014774 0.000824
0.111395 0.014984 0.001034
0.143624 0.015195 0.001245
0.175852 0.015405 0.001455
0.208080 0.015616 0.001666
0.240309 0.015826 0.001876
0.272537 0.016037 0.002087
0.304765 0.016247 0.002297
0.336994 0.016458 0.002508
0.369222 0.016668 0.002718
0.401450 0.016879 0.002929
0.433679 0.017089 0.003139
0.465907 0.017300 0.003350
0.498135 0.017510 0.003561
0.530364 0.017721 0.003771
0.562592 0.017931 0.003982
0.594820 0.018142 0.004192
0.627049 0.018352 0.004403
0.659277 0.018563 0.004613
0.691505 0.018773 0.004824
0.723734 0.018984 0.005034
0.755962 0.019195 0.005245
0.788191 0.019405 0.005455
0.820419 0.019616 0.005666
0.852647 0.019826 0.005876
0.884869 0.020037 0.006087
0.915287 0.020235 0.006285
0.939273 0.020392 0.006442
0.955380 0.020497 0.006547
0.962543 0.020544 0.006594
0.001010 0.046660 0.001010
0.015411 0.046754 0.001104
0.047640 0.046965 0.001314
0.079868 0.047176 0.001525
0.112096 0.047386 0.001735
0.144325 0.047597 0.001946
0.176553 0.047807 0.002156
0.208781 0.048018 0.002367
0.241010 0.048228 0.002578
0.273238 0.048439 0.002788
0.305467 0.048649 0.002999
0.337695 0.048860 0.003209
0.369923 0.049070 0.003420
0.402152 0.049281 0.003630
0.434380 0.049491 0.003841
0.466608 0.049702 0.004051
0.498837 0.049912 0.004262
0.531065 0.050123 0.004472
0.563293 0.050333 0.004683
0.595522 0.050544 0.004893
0.627750 0.050754 0.005104
0.659978 0.050965 0.005314
0.692207 0.051176 0.005525
0.724435 0.051386 0.005735
0.756663 0.051597 0.005946
0.788892 0.051807 0.006156
0.821120 0.052018 0.006367
0.853348 0.052228 0.006578
0.885570 0.052439 0.006788
0.915988 0.052637 0.006987
0.939974 0.052794 0.007143
0.956081 0.052899 0.007249
0.963245 0.052946 0.007295
0.001711 0.079062 0.001711
0.016113 0.079156 0.001805
0.048341 0.079367 0.002016
0.080569 0.079578 0.002226
0.112798 0.079788 0.002437
0.145026 0.079999 0.002647
0.177254 0.080209 0.002858
0.209483 0.080420 0.003068
0.241711 0.080630 0.003279
0.273939 0.080841 0.003489
0.306168 0.081051 0.003700
0.338396 0.081262 0.003910
0.370624 0.081472 0.004121
0.402853 0.081683 0.004331
0.435081 0.081893 0.004542
0.467309 0.082104 0.004752
0.499538 0.082314 0.004963
0.531766 0.082525 0.005173
0.563995 0.082735 0.005384
0.596223 0.082946 0.005595
0.628451 0.083156 0.005805
0.660680 0.083367 0.006016
0.692908 0.083578 0.006226
0.725136 0.083788 0.006437
0.757365 0.083999 0.006647
0.789593 0.084209 0.006858
0.821821 0.084420 0.007068
0.854050 0.084630 0.007279
0.886271 0.084841 0.007489
0.916690 0.085039 0.007688
0.940675 0.085196 0.007845
0.956782 0.085301 0.007950
0.963946 0.085348 0.007997
0.002412 0.111464 0.002412
0.016814 0.111559 0.002506
0.049042 0.111769 0.002717
0.081271 0.111980 0.002927
0.113499 0.112190 0.003138
0.145727 0.112401 0.003348
0.177956 0.112611 0.003559
0.210184 0.112822 0.003769
0.242412 0.113032 0.003980
0.274641 0.113243 0.004190
0.306869 0.113453 0.004401
0.339097 0.113664 0.004612
0.371326 0.113874 0.004822
0.403554 0.114085 0.005033
0.435782 0.114295 0.005243
0.468011 0.114506 0.005454
0.500239 0.114716 0.005664
0.532467 0.114927 0.005875
0.564696 0.115137 0.006085
0.596924 0.115348 0.006296
0.629152 0.115558 0.006506
0.661381 0.115769 0.006717
0.693609 0.115980 0.006927
0.725837 0.116190 0.007138
0.758066 0.116401 0.007348
0.790294 0.116611 0.007559
0.822522 0.116822 0.007769
0.854751 0.117032 0.007980
0.886972 0.117243 0.008190
0.917391 0.117441 0.008389
0.941376 0.117598 0.008546
0.957483 0.117703 0.008651
0.964647 0.117750 0.008698
0.003113 0.143866 0.003113
0.017515 0.143961 0.003207
0.049743 0.144171 0.003418
0.081972 0.144382 0.003629
0.114200 0.144592 0.003839
0.146428 0.144803 0.004050
0.178657 0.145013 0.004260
0.210885 0.145224 0.004471
0.243113 0.145434 0.004681
0.275342 0.145645 0.004892
0.307570 0.145855 0.005102
0.339798 0.146066 0.005313
0.372027 0.146276 0.005523
0.404255 0.146487 0.005734
0.436484 0.146697 0.005944
0.468712 0.146908 0.006155
0.500940 0.147118 0.006365
0.533169 0.147329 0.006576
0.565397 0.147539 0.006786
0.597625 0.147750 0.006997
0.629854 0.147961 0.007207
0.662082 0.148171 0.007418
0.694310 0.148382 0.007629
0.726539 0.148592 0.007839
0.758767 0.148803 0.008050
0.790995 0.149013 0.008260
0.823224 0.149224 0.008471
0.855452 0.149434 0.008681
0.887673 0.149645 0.008892
0.918092 0.149843 0.009090
0.942078 0.150000 0.009247
0.958184 0.150105 0.009352
0.965348 0.150152 0.009399
0.003815 0.176268 0.003815
0.018216 0.176363 0.003909
0.050445 0.176573 0.004119
0.082673 0.176784 0.004330
0.114901 0.176994 0.004540
0.147130 0.177205 0.004751
0.179358 0.177415 0.004961
0.211586 0.177626 0.005172
0.243815 0.177836 0.005382
0.276043 0.178047 0.005593
0.308271 0.178257 0.005803
0.340500 0.178468 0.006014
0.372728 0.178678 0.006224
0.404956 0.178889 0.006435
0.437185 0.179099 0.006646
0.469413 0.179310 0.006856
0.501641 0.179520 0.007067
0.533870 0.179731 0.007277
0.566098 0.179941 0.007488
0.598326 0.180152 0.007698
0.630555 0.180363 0.007909
0.662783 0.180573 0.008119
0.695012 0.180784 0.008330
0.727240 0.180994 0.008540
0.759468 0.181205 0.008751
0.791697 0.181415 0.008961
0.823925 0.181626 0.009172
0.856153 0.181836 0.009382
0.888375 0.182047 0.009593
0.918793 0.182245 0.009792
0.942779 0.182402 0.009948
0.958886 0.182507 0.010053
0.966049 0.182554 0.010100
0.004516 0.208671 0.004516
0.018917 0.208765 0.004610
0.051146 0.208975 0.004820
0.083374 0.209186 0.005031
0.115602 0.209396 0.005241
0.147831 0.209607 0.005452
0.180059 0.209817 0.005663
0.212288 0.210028 0.005873
0.244516 0.210238 0.006084
0.276744 0.210449 0.006294
0.308973 0.210659 0.006505
0.341201 0.210870 0.006715
0.373429 0.211080 0.006926
0.405658 0.211291 0.007136
0.437886 0.211501 0.007347
0.470114 0.211712 0.007557
0.502343 0.211922 0.007768
0.534571 0.212133 0.007978
0.566799 0.212344 0.008189
0.599028 0.212554 0.008399
0.631256 0.212765 0.008610
0.663484 0.212975 0.008820
0.695713 0.213186 0.009031
0.727941 0.213396 0.009241
0.760169 0.213607 0.009452
0.792398 0.213817 0.009663
0.824626 0.214028 0.009873
0.856854 0.214238 0.010084
0.889076 0.214449 0.010294
0.919494 0.214647 0.010493
0.943480 0.214804 0.010649
0.959587 0.214909 0.010755
0.966751 0.214956 0.010801
0.005217 0.241073 0.005217
0.019619 0.241167 0.005311
0.051847 0.241377 0.005522
0.084075 0.241588 0.005732
0.116304 0.241798 0.005943
0.148532 0.242009 0.006153
0.180760 0.242219 0.006364
0.212989 0.242430 0.006574
0.245217 0.242640 0.006785
0.277445 0.242851 0.006995
0.309674 0.243061 0.007206
0.341902 0.243272 0.007416
0.374130 0.243482 0.007627
0.406359 0.243693 0.007837
0.438587 0.243903 0.008048
0.470816 0.244114 0.008258
0.503044 0.244324 0.008469
0.535272 0.244535 0.008680
0.567501 0.244746 0.008890
0.599729 0.244956 0.009101
0.631957 0.245167 0.009311
0.664186 0.245377 0.009522
0.696414 0.245588 0.009732
0.728642 0.245798 0.009943
0.760871 0.246009 0.010153
0.793099 0.246219 0.010364
0.825327 0.246430 0.010574
0.857556 0.246640 0.010785
0.889777 0.246851 0.010995
0.920196 0.247049 0.011194
0.944181 0.247206 0.011351
0.960288 0.247311 0.011456
0.967452 0.247358 0.011503
0.005918 0.273475 0.005918
0.020320 0.273569 0.006012
0.052548 0.273779 0.006223
0.084777 0.273990 0.006433
0.117005 0.274200 0.006644
0.149233 0.274411 0.006854
0.181462 0.274621 0.007065
0.213690 0.274832 0.007275
0.245918 0.275042 0.007486
0.278147 0.275253 0.007697
0.310375 0.275463 0.007907
0.342603 0.275674 0.008118
0.374832 0.275884 0.008328
0.407060 0.276095 0.008539
0.439288 0.276305 0.008749
0.471517 0.276516 0.008960
0.503745 0.276727 0.009170
0.535973 0.276937 0.009381
0.568202 0.277148 0.009591
0.600430 0.277358 0.009802
0.632658 0.277569 0.010012
0.664887 0.277779 0.010223
0.697115 0.277990 0.010433
0.729343 0.278200 0.010644
0.761572 0.278411 0.010854
0.793800 0.278621 0.011065
0.826029 0.278832 0.011275
0.858257 0.279042 0.011486
0.890478 0.279253 0.011696
0.920897 0.279451 0.011895
0.944882 0.279608 0.012052
0.960989 0.279713 0.012157
0.968153 0.279760 0.012204
0.006619 0.305877 0.006619
0.021021 0.305971 0.006714
0.053249 0.306181 0.006924
0.085478 0.306392 0.007135
0.117706 0.306602 0.007345
0.149934 0.306813 0.007556
0.182163 0.307023 0.007766
0.214391 0.307234 0.007977
0.246620 0.307444 0.008187
0.278848 0.307655 0.008398
0.311076 0.307865 0.008608
0.343305 0.308076 0.008819
0.375533 0.308286 0.009029
0.407761 0.308497 0.009240
0.439990 0.308707 0.009450
0.472218 0.308918 0.009661
0.504446 0.309129 0.009871
0.536675 0.309339 0.010082
0.568903 0.309550 0.010292
0.601131 0.309760 0.010503
0.633360 0.309971 0.010714
0.665588 0.310181 0.010924
0.697816 0.310392 0.011135
0.730045 0.310602 0.011345
0.762273 0.310813 0.011556
0.794501 0.311023 0.011766
0.826730 0.311234 0.011977
0.858958 0.311444 0.012187
0.891180 0.311655 0.012398
0.921598 0.311853 0.012596
0.945584 0.312010 0.012753
0.961690 0.312115 0.012858
0.968854 0.312162 0.012905
0.007321 0.338279 0.007321
0.021722 0.338373 0.007415
0.053951 0.338583 0.007625
0.086179 0.338794 0.007836
0.118407 0.339004 0.008046
0.150636 0.339215 0.008257
0.182864 0.339425 0.008467
0.215092 0.339636 0.008678
0.247321 0.339846 0.008888
0.279549 0.340057 0.009099
0.311777 0.340267 0.009309
0.344006 0.340478 0.009520
0.376234 0.340688 0.009731
0.408462 0.340899 0.009941
0.440691 0.341109 0.010152
0.472919 0.341320 0.010362
0.505147 0.341531 0.010573
0.537376 0.341741 0.010783
0.569604 0.341952 0.010994
0.601833 0.342162 0.011204
0.634061 0.342373 0.011415
0.666289 0.342583 0.011625
0.698518 0.342794 0.011836
0.730746 0.343004 0.012046
0.762974 0.343215 0.012257
0.795203 0.343425 0.012467
0.827431 0.343636 0.012678
0.859659 0.343846 0.012888
0.891881 0.344057 0.013099
0.922299 0.344256 0.013298
0.946285 0.344412 0.013454
0.962392 0.344517 0.013559
0.969556 0.344564 0.013606
0.008022 0.370681 0.008022
0.022423 0.370775 0.008116
0.054652 0.370985 0.008326
0.086880 0.371196 0.008537
0.119109 0.371406 0.008748
0.151337 0.371617 0.008958
0.183565 0.371827 0.009169
0.215794 0.372038 0.009379
0.248022 0.372248 0.009590
0.280250 0.372459 0.009800
0.312479 0.372669 0.010011
0.344707 0.372880 0.010221
0.376935 0.373090 0.010432
0.409164 0.373301 0.010642
0.441392 0.373512 0.010853
0.473620 0.373722 0.011063
0.505849 0.373933 0.011274
0.538077 0.374143 0.011484
0.570305 0.374354 0.011695
0.602534 0.374564 0.011905
0.634762 0.374775 0.012116
0.666990 0.374985 0.012326
0.699219 0.375196 0.012537
0.731447 0.375406 0.012747
0.763675 0.375617 0.012958
0.795904 0.375827 0.013169
0.828132 0.376038 0.013379
0.860360 0.376248 0.013590
0.892582 0.376459 0.013800
0.923000 0.376658 0.013999
0.946986 0.376814 0.014155
0.963093 0.376919 0.014261
0.970257 0.376966 0.014307
0.008723 0.403083 0.008723
0.023125 0.403177 0.008817
0.055353 0.403387 0.009028
0.087581 0.403598 0.009238
0.119810 0.403808 0.009449
0.152038 0.404019 0.009659
0.184266 0.404229 0.009870
0.216495 0.404440 0.010080
0.248723 0.404650 0.010291
0.280951 0.404861 0.010501
0.313180 0.405071 0.010712
0.345408 0.405282 0.010922
0.377637 0.405492 0.011133
0.409865 0.405703 0.011343
0.442093 0.405914 0.011554
0.474322 0.406124 0.011765
0.506550 0.406335 0.011975
0.538778 0.406545 0.012186
0.571007 0.406756 0.012396
0.603235 0.406966 0.012607
0.635463 0.407177 0.012817
0.667692 0.407387 0.013028
0.699920 0.407598 0.013238
0.732148 0.407808 0.013449
0.764377 0.408019 0.013659
0.796605 0.408229 0.013870
0.828833 0.408440 0.014080
0.861062 0.408650 0.014291
0.893283 0.408861 0.014501
0.923702 0.409060 0.014700
0.947687 0.409216 0.014857
0.963794 0.409321 0.014962
0.970958 0.409368 0.015009
0.009424 0.435485 0.009424
0.023826 0.435579 0.009518
0.056054 0.435789 0.009729
0.088283 0.436000 0.009939
0.120511 0.436210 0.010150
0.152739 0.436421 0.010360
0.184968 0.436631 0.010571
0.217196 0.436842 0.010782
0.249424 0.437052 0.010992
0.281653 0.437263 0.011203
0.313881 0.437473 0.011413
0.346109 0.437684 0.011624
0.378338 0.437895 0.011834
0.410566 0.438105 0.012045
0.442794 0.438316 0.012255
0.475023 0.438526 0.012466
0.507251 0.438737 0.012676
0.539479 0.438947 0.012887
0.571708 0.439158 0.013097
0.603936 0.439368 0.013308
0.636164 0.439579 0.013518
0.668393 0.439789 0.013729
0.700621 0.440000 0.013939
0.732850 0.440210 0.014150
0.765078 0.440421 0.014360
0.797306 0.440631 0.014571
0.829535 0.440842 0.014781
0.861763 0.441052 0.014992
0.893984 0.441263 0.015202
0.924403 0.441462 0.015401
0.948388 0.441618 0.015558
0.964495 0.441723 0.015663
0.971659 0.441770 0.015710
0.010125 0.467887 0.010125
0.024527 0.467981 0.010220
0.056755 0.468191 0.010430
0.088984 0.468402 0.010641
0.121212 0.468612 0.010851
0.153441 0.468823 0.011062
0.185669 0.469033 0.011272
0.217897 0.469244 0.011483
0.250126 0.469454 0.011693
0.282354 0.469665 0.011904
0.314582 0.469875 0.012114
0.346811 0.470086 0.012325
0.379039 0.470297 0.012535
0.411267 0.470507 0.012746
0.443496 0.470718 0.012956
0.475724 0.470928 0.013167
0.507952 0.471139 0.013377
0.540181 0.471349 0.013588
0.572409 0.471560 0.013798
0.604637 0.471770 0.014009
0.636866 0.471981 0.014220
0.669094 0.472191 0.014430
0.701322 0.472402 0.014641
0.733551 0.472612 0.014851
0.765779 0.472823 0.015062
0.798007 0.473033 0.015272
0.830236 0.473244 0.015483
0.862464 0.473454 0.015693
0.894686 0.473665 0.015904
0.925104 0.473864 0.016102
0.949090 0.474020 0.016259
0.965196 0.474125 0.016364
0.972360 0.474172 0.016411
0.010827 0.500289 0.010827
0.025228 0.500383 0.010921
0.057457 0.500593 0.011131
0.089685 0.500804 0.011342
0.121913 0.501014 0.011552
0.154142 0.501225 0.011763
0.186370 0.501435 0.011973
0.218598 0.501646 0.012184
0.250827 0.501856 0.012394
0.283055 0.502067 0.012605
0.315283 0.502278 0.012816
0.347512 0.502488 0.013026
0.379740 0.502699 0.013237
0.411968 0.502909 0.013447
0.444197 0.503120 0.013658
0.476425 0.503330 0.013868
0.508654 0.503541 0.014079
0.540882 0.503751 0.014289
0.573110 0.503962 0.014500
0.605339 0.504172 0.014710
0.637567 0.504383 0.014921
0.669795 0.504593 0.015131
0.702024 0.504804 0.015342
0.734252 0.505014 0.015552
0.766480 0.505225 0.015763
0.798709 0.505435 0.015973
0.830937 0.505646 0.016184
0.863165 0.505856 0.016394
0.895387 0.506067 0.016605
0.925805 0.506266 0.016804
0.949791 0.506422 0.016960
0.965898 0.506528 0.017066
0.973062 0.506574 0.017112
0.011528 0.532691 0.011528
0.025930 0.532785 0.011622
0.058158 0.532995 0.011833
0.090386 0.533206 0.012043
0.122615 0.533416 0.012254
0.154843 0.533627 0.012464
0.187071 0.533837 0.012675
0.219300 0.534048 0.012885
0.251528 0.534258 0.013096
0.283756 0.534469 0.013306
0.315985 0.534680 0.013517
0.348213 0.534890 0.013727
0.380441 0.535101 0.013938
0.412670 0.535311 0.014148
0.444898 0.535522 0.014359
0.477126 0.535732 0.014569
0.509355 0.535943 0.014780
0.541583 0.536153 0.014990
0.573811 0.536364 0.015201
0.606040 0.536574 0.015411
0.638268 0.536785 0.015622
0.670496 0.536995 0.015832
0.702725 0.537206 0.016043
0.734953 0.537416 0.016254
0.767182 0.537627 0.016464
0.799410 0.537837 0.016675
0.831638 0.538048 0.016885
0.863867 0.538258 0.017096
0.896088 0.538469 0.017306
0.926507 0.538668 0.017505
0.950492 0.538824 0.017662
0.966599 0.538930 0.017767
0.973763 0.538976 0.017814
0.012229 0.565093 0.012229
0.026631 0.565187 0.012323
0.058859 0.565397 0.012534
0.091087 0.565608 0.012744
0.123316 0.565818 0.012955
0.155544 0.566029 0.013165
0.187772 0.566239 0.013376
0.220001 0.566450 0.013586
0.252229 0.566660 0.013797
0.284458 0.566871 0.014007
0.316686 0.567082 0.014218
0.348914 0.567292 0.014428
0.381143 0.567503 0.014639
0.413371 0.567713 0.014849
0.445599 0.567924 0.015060
0.477828 0.568134 0.015271
0.510056 0.568345 0.015481
0.542284 0.568555 0.015692
0.574513 0.568766 0.015902
0.606741 0.568976 0.016113
0.638969 0.569187 0.016323
0.671198 0.569397 0.016534
0.703426 0.569608 0.016744
0.735654 0.569818 0.016955
0.767883 0.570029 0.017165
0.800111 0.570239 0.017376
0.832339 0.570450 0.017586
0.864568 0.570660 0.017797
0.896789 0.570871 0.018007
0.927208 0.571070 0.018206
0.951193 0.571226 0.018363
0.967300 0.571332 0.018468
0.974464 0.571378 0.018515
0.012930 0.597495 0.012930
0.027332 0.597589 0.013024
0.059560 0.597799 0.013235
0.091789 0.598010 0.013445
0.124017 0.598220 0.013656
0.156245 0.598431 0.013867
0.188474 0.598641 0.014077
0.220702 0.598852 0.014288
0.252930 0.599063 0.014498
0.285159 0.599273 0.014709
0.317387 0.599484 0.014919
0.349615 0.599694 0.015130
0.381844 0.599905 0.015340
0.414072 0.600115 0.015551
0.446300 0.600326 0.015761
0.478529 0.600536 0.015972
0.510757 0.600747 0.016182
0.542985 0.600957 0.016393
0.575214 0.601168 0.016603
0.607442 0.601378 0.016814
0.639671 0.601589 0.017024
0.671899 0.601799 0.017235
0.704127 0.602010 0.017445
0.736356 0.602220 0.017656
0.768584 0.602431 0.017866
0.800812 0.602641 0.018077
0.833041 0.602852 0.018288
0.865269 0.603062 0.018498
0.897490 0.603273 0.018709
0.927909 0.603472 0.018907
0.951894 0.603628 0.019064
0.968001 0.603734 0.019169
0.975165 0.603780 0.019216
0.013632 0.629897 0.013632
0.028033 0.629991 0.013726
0.060262 0.630201 0.013936
0.092490 0.630412 0.014147
0.124718 0.630622 0.014357
0.156947 0.630833 0.014568
0.189175 0.631043 0.014778
0.221403 0.631254 0.014989
0.253632 0.631465 0.015199
0.285860 0.631675 0.015410
0.318088 0.631886 0.015620
0.350317 0.632096 0.015831
0.382545 0.632307 0.016041
0.414773 0.632517 0.016252
0.447002 0.632728 0.016462
0.479230 0.632938 0.016673
0.511458 0.633149 0.016883
0.543687 0.633359 0.017094
0.575915 0.633570 0.017305
0.608143 0.633780 0.017515
0.640372 0.633991 0.017726
0.672600 0.634201 0.017936
0.704828 0.634412 0.018147
0.737057 0.634622 0.018357
0.769285 0.634833 0.018568
0.801513 0.635043 0.018778
0.833742 0.635254 0.018989
0.865970 0.635465 0.019199
0.898192 0.635675 0.019410
0.928610 0.635874 0.019608
0.952596 0.636030 0.019765
0.968703 0.636136 0.019870
0.975866 0.636182 0.019917
0.014333 0.662299 0.014333
0.028734 0.662393 0.014427
0.060963 0.662603 0.014637
0.093191 0.662814 0.014848
0.125419 0.663024 0.015058
0.157648 0.663235 0.015269
0.189876 0.663446 0.015479
0.222104 0.663656 0.015690
0.254333 0.663867 0.015900
0.286561 0.664077 0.016111
0.318789 0.664288 0.016322
0.351018 0.664498 0.016532
0.383246 0.664709 0.016743
0.415475 0.664919 0.016953
0.447703 0.665130 0.017164
0.479931 0.665340 0.017374
0.512160 0.665551 0.017585
0.544388 0.665761 0.017795
0.576616 0.665972 0.018006
0.608845 0.666182 0.018216
0.641073 0.666393 0.018427
0.673301 0.666603 0.018637
0.705530 0.666814 0.018848
0.737758 0.667024 0.019058
0.769986 0.667235 0.019269
0.802215 0.667445 0.019479
0.834443 0.667656 0.019690
0.866671 0.667867 0.019900
0.898893 0.668077 0.020111
0.929311 0.668276 0.020310
0.953297 0.668432 0.020466
0.969404 0.668538 0.020572
0.976568 0.668584 0.020618
0.015034 0.694701 0.015034
0.029436 0.694795 0.015128
0.061664 0.695005 0.015339
0.093892 0.695216 0.015549
0.126121 0.695426 0.015760
0.158349 0.695637 0.015970
0.190577 0.695848 0.016181
0.222806 0.696058 0.016391
0.255034 0.696269 0.016602
0.287262 0.696479 0.016812
0.319491 0.696690 0.017023
0.351719 0.696900 0.017233
0.383947 0.697111 0.017444
0.416176 0.697321 0.017654
0.448404 0.697532 0.017865
0.480632 0.697742 0.018075
0.512861 0.697953 0.018286
0.545089 0.698163 0.018496
0.577317 0.698374 0.018707
0.609546 0.698584 0.018917
0.641774 0.698795 0.019128
0.674003 0.699005 0.019339
0.706231 0.699216 0.019549
0.738459 0.699426 0.019760
0.770688 0.699637 0.019970
0.802916 0.699848 0.020181
0.835144 0.700058 0.020391
0.867373 0.700269 0.020602
0.899594 0.700479 0.020812
0.930013 0.700678 0.021011
0.953998 0.700834 0.021168
0.970105 0.700940 0.021273
0.977269 0.700986 0.021320
0.015735 0.727103 0.015735
0.030137 0.727197 0.015829
0.062365 0.727407 0.016040
0.094593 0.727618 0.016250
0.126822 0.727828 0.016461
0.159050 0.728039 0.016671
0.191279 0.728250 0.016882
0.223507 0.728460 0.017092
0.255735 0.728671 0.017303
0.287964 0.728881 0.017513
0.320192 0.729092 0.017724
0.352420 0.729302 0.017934
0.384649 0.729513 0.018145
0.416877 0.729723 0.018356
0.449105 0.729934 0.018566
0.481334 0.730144 0.018777
0.513562 0.730355 0.018987
0.545790 0.730565 0.019198
0.578019 0.730776 0.019408
0.610247 0.730986 0.019619
0.642475 0.731197 0.019829
0.674704 0.731407 0.020040
0.706932 0.731618 0.020250
0.739160 0.731828 0.020461
0.771389 0.732039 0.020671
0.803617 0.732250 0.020882
0.835845 0.732460 0.021092
0.868074 0.732671 0.021303
0.900295 0.732881 0.021513
0.930714 0.733080 0.021712
0.954699 0.733236 0.021869
0.970806 0.733342 0.021974
0.977970 0.733388 0.022021
0.016436 0.759505 0.016436
0.030838 0.759599 0.016530
0.063066 0.759809 0.016741
0.095295 0.760020 0.016951
0.127523 0.760231 0.017162
0.159751 0.760441 0.017373
0.191980 0.760652 0.017583
0.224208 0.760862 0.017794
0.256436 0.761073 0.018004
0.288665 0.761283 0.018215
0.320893 0.761494 0.018425
0.353121 0.761704 0.018636
0.385350 0.761915 0.018846
0.417578 0.762125 0.019057
0.449807 0.762336 0.019267
0.482035 0.762546 0.019478
0.514263 0.762757 0.019688
0.546492 0.762967 0.019899
0.578720 0.763178 0.020109
0.610948 0.763388 0.020320
0.643177 0.763599 0.020530
0.675405 0.763809 0.020741
0.707633 0.764020 0.020951
0.739862 0.764231 0.021162
0.772090 0.764441 0.021373
0.804318 0.764652 0.021583
0.836547 0.764862 0.021794
0.868775 0.765073 0.022004
0.900996 0.765283 0.022215
0.931415 0.765482 0.022413
0.955400 0.765638 0.022570
0.971507 0.765744 0.022675
0.978671 0.765790 0.022722
0.017138 0.791907 0.017138
0.031539 0.792001 0.017232
0.063768 0.792211 0.017442
0.095996 0.792422 0.017653
0.128224 0.792633 0.017863
0.160453 0.792843 0.018074
0.192681 0.793054 0.018284
0.224909 0.793264 0.018495
0.257138 0.793475 0.018705
0.289366 0.793685 0.018916
0.321594 0.793896 0.019126
0.353823 0.794106 0.019337
0.386051 0.794317 0.019547
0.418279 0.794527 0.019758
0.450508 0.794738 0.019968
0.482736 0.794948 0.020179
0.514964 0.795159 0.020390
0.547193 0.795369 0.020600
0.579421 0.795580 0.020811
0.611649 0.795790 0.021021
0.643878 0.796001 0.021232
0.676106 0.796211 0.021442
0.708334 0.796422 0.021653
0.740563 0.796633 0.021863
0.772791 0.796843 0.022074
0.805020 0.797054 0.022284
0.837248 0.797264 0.022495
0.869476 0.797475 0.022705
0.901698 0.797685 0.022916
0.932116 0.797884 0.023114
0.956102 0.798040 0.023271
0.972209 0.798146 0.023376
0.979372 0.798193 0.023423
0.017839 0.824309 0.017839
0.032240 0.824403 0.017933
0.064469 0.824614 0.018143
0.096697 0.824824 0.018354
0.128925 0.825035 0.018564
0.161154 0.825245 0.018775
0.193382 0.825456 0.018985
0.225610 0.825666 0.019196
0.257839 0.825877 0.019407
0.290067 0.826087 0.019617
0.322296 0.826298 0.019828
0.354524 0.826508 0.020038
0.386752 0.826719 0.020249
0.418981 0.826929 0.020459
0.451209 0.827140 0.020670
0.483437 0.827350 0.020880
0.515666 0.827561 0.021091
0.547894 0.827771 0.021301
0.580122 0.827982 0.021512
0.612351 0.828192 0.021722
0.644579 0.828403 0.021933
0.676807 0.828613 0.022143
0.709036 0.828824 0.022354
0.741264 0.829035 0.022564
0.773492 0.829245 0.022775
0.805721 0.829456 0.022985
