brand/assets/grade.cube
# Conquest · clean — tools/make_grade.py
TITLE "Conquest · clean"
LUT_3D_SIZE 5
DOMAIN_MIN 0.0 0.0 0.0
DOMAIN_MAX 1.0 1.0 1.0
0.000000 0.000000 0.000000
0.240000 0.001568 0.001568
0.497827 0.003252 0.003252
0.755654 0.004936 0.004936
0.962235 0.006286 0.006286
0.005217 0.241073 0.005217
0.245217 0.242640 0.006785
0.503044 0.244324 0.008469
0.760871 0.246009 0.010153
0.967452 0.247358 0.011503
0.010827 0.500289 0.010827
0.250827 0.501856 0.012394
0.508654 0.503541 0.014079
0.766480 0.505225 0.015763
0.973062 0.506574 0.017112
0.016436 0.759505 0.016436
0.256436 0.761073 0.018004
0.514263 0.762757 0.019688
0.772090 0.764441 0.021373
0.978671 0.765790 0.022722
0.021145 0.977094 0.021145
0.261145 0.978662 0.022713
0.518972 0.980346 0.024397
0.776799 0.982031 0.026081
0.983380 0.983380 0.027431
0.000526 0.000526 0.236032
0.240526 0.002094 0.237600
0.498353 0.003778 0.239284
0.756179 0.005462 0.240968
0.962761 0.006811 0.242318
0.005743 0.241598 0.241249
0.245743 0.243166 0.242817
0.503570 0.244850 0.244501
0.761397 0.246535 0.246185
0.967978 0.247884 0.247535
0.011353 0.500815 0.246859
0.251353 0.502382 0.248427
0.509179 0.504067 0.250111
0.767006 0.505751 0.251795
0.973587 0.507100 0.253144
0.016962 0.760031 0.252468
0.256962 0.761599 0.254036
0.514789 0.763283 0.255720
0.772616 0.764967 0.257405
0.979197 0.766316 0.258754
0.021671 0.977620 0.257177
0.261671 0.979188 0.258745
0.519498 0.980872 0.260429
0.777325 0.982557 0.262113
0.983906 0.983906 0.263463
0.001084 0.001084 0.486400
0.241084 0.002651 0.487968
0.498911 0.004336 0.489652
0.756737 0.006020 0.491337
0.963319 0.007369 0.492686
0.006301 0.242156 0.491617
0.246301 0.243724 0.493185
0.504128 0.245408 0.494869
0.761954 0.247092 0.496554
0.968536 0.248442 0.497903
0.011910 0.501372 0.497227
0.251910 0.502940 0.498795
0.509737 0.504624 0.500479
0.767564 0.506309 0.502163
0.974145 0.507658 0.503513
0.017520 0.760589 0.502837
0.257520 0.762156 0.504405
0.515347 0.763841 0.506089
0.773174 0.765525 0.507773
0.979755 0.766874 0.509122
0.022229 0.978178 0.507546
0.262229 0.979746 0.509113
0.520056 0.981430 0.510798
0.777883 0.983114 0.512482
0.984464 0.984464 0.513831
0.001639 0.001639 0.735486
0.241639 0.003206 0.737054
0.499466 0.004891 0.738738
0.757292 0.006575 0.740422
0.963874 0.007924 0.741772
0.006856 0.242711 0.740703
0.246856 0.244279 0.742271
0.504683 0.245963 0.743955
0.762509 0.247647 0.745639
0.969091 0.248997 0.746989
0.012465 0.501927 0.746313
0.252465 0.503495 0.747880
0.510292 0.505179 0.749565
0.768119 0.506864 0.751249
0.974700 0.508213 0.752598
0.018075 0.761144 0.751922
0.258075 0.762711 0.753490
0.515902 0.764395 0.755174
0.773729 0.766080 0.756858
0.980310 0.767429 0.758208
0.022784 0.978733 0.756631
0.262784 0.980301 0.758199
0.520611 0.981985 0.759883
0.778437 0.983669 0.761567
0.985019 0.985019 0.762917
0.002124 0.002124 0.953426
0.242124 0.003692 0.954994
0.499951 0.005376 0.956678
0.757778 0.007060 0.958362
0.964359 0.008410 0.959712
0.007341 0.243197 0.958643
0.247341 0.244765 0.960211
0.505168 0.246449 0.961895
0.762995 0.248133 0.963579
0.969576 0.249482 0.964929
0.012951 0.502413 0.964253
0.252951 0.503981 0.965821
0.510778 0.505665 0.967505
0.768605 0.507349 0.969189
0.975186 0.508699 0.970539
0.018561 0.761629 0.969863
0.258561 0.763197 0.971430
0.516387 0.764881 0.973115
0.774214 0.766565 0.974799
0.980795 0.767915 0.976148
0.023269 0.979219 0.974571
0.263270 0.980786 0.976139
0.521096 0.982471 0.977823
0.778923 0.984155 0.979508
0.985504 0.985504 0.980857
